Projects/Foundations/Icons-SVG-Sources/assets/polkadot.svg

<svg width="512" height="512" viewBox="0 0 512 512" fill="none" xmlns="http://www.w3.org/2000/svg">
<path d="M0 256C0 397.4 114.6 512 256 512V0C114.6 0 0 114.6 0 256Z" fill="#365558"/>
<path d="M256 0V512C397.4 512 512 397.4 512 256C512 114.6 397.4 0 256 0Z" fill="#0295AA"/>
<path d="M255.998 105.36C225.661 105.39 196.575 117.454 175.123 138.905C153.672 160.357 141.607 189.443 141.578 219.78C141.62 232.429 143.665 244.992 147.638 257C149.131 260.847 152.051 263.968 155.79 265.713C159.529 267.457 163.798 267.689 167.704 266.361C171.611 265.033 174.853 262.248 176.754 258.586C178.656 254.924 179.069 250.67 177.908 246.71C174.586 237.29 173.046 227.334 173.368 217.35C174.578 174.67 209.078 139.56 251.758 137.44C273.451 136.482 294.646 144.118 310.743 158.691C326.839 173.265 336.538 193.599 337.734 215.28C338.929 236.961 331.525 258.238 317.128 274.493C302.732 290.748 282.505 300.668 260.838 302.1C260.838 302.1 244.838 303.01 236.928 304.22C232.998 304.82 229.928 305.43 227.848 305.73C227.638 305.794 227.415 305.8 227.202 305.747C226.989 305.694 226.795 305.584 226.64 305.428C226.485 305.273 226.375 305.079 226.322 304.866C226.269 304.653 226.274 304.43 226.338 304.22L229.058 290.9L243.888 222.49C244.325 220.462 244.358 218.368 243.985 216.327C243.612 214.286 242.841 212.338 241.716 210.595C240.59 208.852 239.132 207.348 237.426 206.168C235.719 204.989 233.796 204.157 231.768 203.72C229.74 203.284 227.645 203.251 225.604 203.624C223.564 203.996 221.616 204.768 219.873 205.893C218.13 207.018 216.626 208.476 215.446 210.183C214.267 211.89 213.435 213.812 212.998 215.84C212.998 215.84 177.278 382.32 176.998 384.14C176.115 388.234 176.894 392.511 179.164 396.03C181.434 399.549 185.01 402.022 189.103 402.905C193.197 403.789 197.474 403.009 200.993 400.739C204.512 398.469 206.985 394.894 207.868 390.8C208.178 388.98 213.018 366.88 213.018 366.88C214.739 358.781 218.918 351.41 224.986 345.775C231.054 340.141 238.713 336.517 246.918 335.4C250.548 334.8 264.778 333.89 264.778 333.89C294.298 331.644 321.797 318.044 341.501 295.948C361.204 273.852 371.577 244.98 370.44 215.397C369.304 185.814 356.746 157.823 335.406 137.304C314.065 116.785 285.603 105.335 255.998 105.36Z" fill="white"/>
<path d="M264.101 368.707C260.391 367.93 256.533 368.27 253.016 369.685C249.498 371.1 246.48 373.526 244.341 376.656C242.202 379.787 241.04 383.481 241.001 387.272C240.962 391.063 242.048 394.781 244.121 397.954C246.195 401.128 249.163 403.616 252.65 405.103C256.138 406.591 259.988 407.01 263.713 406.309C267.439 405.609 270.874 403.819 273.582 401.166C276.291 398.514 278.153 395.118 278.931 391.407C281.051 380.817 274.701 370.827 264.101 368.707Z" fill="#FD6A33"/>
<path d="M167.918 267C171.908 265.601 175.19 262.694 177.059 258.902C178.929 255.11 179.237 250.736 177.918 246.72C174.596 237.3 173.056 227.343 173.378 217.36C174.588 174.68 209.088 139.57 251.768 137.45C253.188 137.37 254.608 137.34 256.008 137.34V105.34C225.666 105.366 196.574 117.432 175.12 138.888C153.665 160.345 141.602 189.438 141.578 219.78C141.62 232.429 143.665 244.991 147.638 257C149.035 260.991 151.942 264.275 155.734 266.145C159.527 268.015 163.902 268.322 167.918 267Z" fill="#E6EAEA"/>
<path d="M256 302.41C250.63 302.78 242.05 303.41 236.93 304.23C233 304.83 229.93 305.44 227.85 305.74C227.64 305.804 227.417 305.81 227.204 305.756C226.991 305.703 226.797 305.593 226.642 305.438C226.487 305.283 226.377 305.089 226.323 304.876C226.27 304.663 226.276 304.44 226.34 304.23L229.06 290.91L243.89 222.5C244.327 220.472 244.361 218.377 243.988 216.336C243.616 214.295 242.846 212.347 241.721 210.603C240.596 208.86 239.138 207.355 237.432 206.175C235.725 204.995 233.803 204.162 231.775 203.725C229.746 203.288 227.652 203.254 225.611 203.626C223.569 203.999 221.622 204.769 219.878 205.894C218.135 207.019 216.63 208.476 215.45 210.183C214.27 211.889 213.437 213.812 213 215.84C213 215.84 177.28 382.32 177 384.14C176.117 388.234 176.896 392.51 179.166 396.03C181.436 399.549 185.011 402.022 189.105 402.905C193.198 403.788 197.475 403.009 200.994 400.739C204.513 398.469 206.987 394.894 207.87 390.8C208.18 388.98 213.02 366.88 213.02 366.88C214.74 358.78 218.92 351.409 224.988 345.775C231.055 340.14 238.715 336.517 246.92 335.4C248.55 335.13 252.34 334.8 256 334.51V302.41Z" fill="#E6EAEA"/>
<path fill-rule="evenodd" clip-rule="evenodd" d="M256 368.767C255.009 368.991 254.033 369.295 253.082 369.678C249.565 371.093 246.546 373.519 244.407 376.649C242.269 379.78 241.107 383.474 241.067 387.265C241.028 391.056 242.114 394.773 244.188 397.947C246.261 401.121 249.229 403.609 252.717 405.096C253.782 405.55 254.881 405.905 256 406.159V368.767Z" fill="#F0353D"/>
</svg>

<svg id="P_with_dark_bg" data-name="P with dark bg" xmlns="http://www.w3.org/2000/svg" viewBox="0 0 512 512"><defs><style>.cls-1{fill:#365558;}.cls-2{fill:#fff;}.cls-3{fill:#f0353d;}.cls-4{fill:#e6eaea;}</style></defs><title>polkadot</title><path class="cls-1" d="M0,256C0,397.4,114.6,512,256,512V0C114.6,0,0,114.6,0,256Z"/><path class="cls-1" d="M256,0V512c141.4,0,256-114.6,256-256S397.4,0,256,0Z"/><g id="P."><path class="cls-2" d="M256,105.36A114.53,114.53,0,0,0,141.58,219.78,119.75,119.75,0,0,0,147.64,257a16,16,0,0,0,30.27-10.29,80.48,80.48,0,0,1-4.54-29.36c1.21-42.68,35.71-77.79,78.39-79.91a82.46,82.46,0,0,1,9.08,164.66s-16,.91-23.91,2.12c-3.93.6-7,1.21-9.08,1.51a1.21,1.21,0,0,1-1.51-1.51l2.72-13.32,14.83-68.41A15.79,15.79,0,1,0,213,215.84s-35.72,166.48-36,168.3a15.79,15.79,0,0,0,30.87,6.66c.31-1.82,5.15-23.92,5.15-23.92a40.2,40.2,0,0,1,33.9-31.48c3.63-.6,17.86-1.51,17.86-1.51A114.43,114.43,0,0,0,256,105.36Z"/><path class="cls-3" d="M264.17,368.7A19.17,19.17,0,1,0,279,391.4C281.12,380.81,274.77,370.82,264.17,368.7Z"/></g><path class="cls-4" d="M167.92,267a16.15,16.15,0,0,0,10-20.28,80.48,80.48,0,0,1-4.54-29.36c1.21-42.68,35.71-77.79,78.39-79.91,1.42-.08,2.84-.11,4.24-.11v-32A114.53,114.53,0,0,0,141.58,219.78,119.75,119.75,0,0,0,147.64,257,16.14,16.14,0,0,0,167.92,267Z"/><path class="cls-4" d="M256,302.41c-5.37.37-13.95,1-19.07,1.82-3.93.6-7,1.21-9.08,1.51a1.21,1.21,0,0,1-1.51-1.51l2.72-13.32,14.83-68.41A15.79,15.79,0,1,0,213,215.84s-35.72,166.48-36,168.3a15.79,15.79,0,0,0,30.87,6.66c.31-1.82,5.15-23.92,5.15-23.92a40.2,40.2,0,0,1,33.9-31.48c1.63-.27,5.42-.6,9.08-.89Z"/></svg>
